build/category/HandOutline.svg

<svg xmlns="http://www.w3.org/2000/svg" fill="none" viewBox="0 0 24 24" focusable="false"><path d="M0 0H24V24H0z"/><path fill="#74767B" fill-rule="evenodd" d="M13.5597 3.28053L13.604 10.9841C13.604 11.3481 13.8904 11.6341 14.2544 11.6341C14.6184 11.6341 14.9038 11.3481 14.9038 10.9841L14.8597 4.6485C14.8597 4.5623 14.8739 4.48144 14.9023 4.40594C14.9382 4.31062 14.9967 4.22383 15.0778 4.14555C15.145 4.08069 15.2187 4.03017 15.2989 3.99399C15.4 3.94836 15.5115 3.92554 15.6332 3.92554C15.7392 3.92554 15.8363 3.94533 15.9246 3.98492C15.9952 4.01656 16.0601 4.06086 16.1193 4.11781C16.1919 4.18799 16.2437 4.26573 16.2748 4.35102C16.2982 4.41508 16.3099 4.48339 16.3099 4.55597L16.3099 11.6805C16.3099 12.0445 16.5959 12.3305 16.9599 12.3305C17.3239 12.3305 17.6099 12.0445 17.6099 11.6805L17.6099 7.46202C17.6099 7.37629 17.6239 7.29583 17.6521 7.22065C17.688 7.12493 17.7466 7.03777 17.8282 6.95915C17.8959 6.89386 17.9701 6.84309 18.0508 6.80685C18.1515 6.76166 18.2624 6.73907 18.3833 6.73907C18.4881 6.73907 18.5842 6.75842 18.6719 6.79712C18.7443 6.8291 18.8109 6.87429 18.8716 6.9327C18.9421 7.00088 18.9929 7.07645 19.0239 7.1594C19.0485 7.22484 19.0607 7.29487 19.0607 7.36949L19.0607 11.9652L19.0572 17.5954C19.0475 17.8267 19.0151 18.0522 18.9598 18.2719C18.9165 18.4441 18.8591 18.6127 18.7878 18.7778C18.7093 18.9595 18.6163 19.1316 18.5087 19.294C18.3987 19.4602 18.2734 19.6163 18.133 19.7622C17.974 19.9275 17.8017 20.0734 17.6162 20.1998C17.4785 20.2937 17.3335 20.3769 17.1812 20.4493C17.0027 20.5343 16.8195 20.6018 16.6317 20.652C16.4398 20.7033 16.243 20.7365 16.0414 20.7515L11.8415 20.7515C11.6926 20.7403 11.5465 20.7177 11.4029 20.6838C11.0507 20.6007 10.7146 20.4494 10.3946 20.23C9.97416 19.9417 9.57497 19.5329 9.19702 19.0038C8.87922 18.5589 8.05165 17.3035 6.71432 15.2377C6.04124 14.198 5.39433 13.1939 4.77359 12.2255C4.70932 12.1298 4.66983 12.0303 4.65554 11.9277C4.64545 11.8552 4.64783 11.7809 4.6627 11.7049C4.68058 11.6135 4.71324 11.5319 4.76069 11.46C4.80862 11.3874 4.87163 11.3248 4.94973 11.2721C5.0107 11.2313 5.07476 11.2 5.1419 11.1783C5.18873 11.1631 5.23707 11.1526 5.2869 11.1467C5.35825 11.138 5.42817 11.1389 5.49666 11.1493C5.56522 11.1596 5.63234 11.1795 5.69803 11.2088C5.7627 11.2377 5.82135 11.2739 5.87399 11.3173C5.93047 11.3639 5.98002 11.4189 6.02264 11.4823L7.85127 14.1993C7.89591 14.2659 7.94756 14.3243 8.00621 14.3746C8.05634 14.4175 8.1116 14.4545 8.17196 14.4855C8.22906 14.5148 8.28793 14.5373 8.34855 14.5529C8.41766 14.5707 8.48906 14.5796 8.56275 14.5796C8.6422 14.5789 8.71833 14.5674 8.79116 14.5451C8.82687 14.5342 8.86178 14.5207 8.8959 14.5045C8.93836 14.4845 8.97844 14.461 9.01614 14.4342C9.06157 14.402 9.10355 14.3648 9.14206 14.3228C9.2133 14.245 9.26656 14.1604 9.30183 14.0688C9.33639 13.979 9.35368 13.8825 9.35368 13.7795L9.35368 11.9652L9.35795 4.83963C9.35795 4.75336 9.37217 4.67245 9.40061 4.59689C9.43651 4.50152 9.49506 4.41469 9.57625 4.33638C9.64396 4.27108 9.71819 4.22031 9.79893 4.18407C9.89962 4.13888 10.0105 4.11629 10.1314 4.11629C10.2362 4.11629 10.3323 4.13564 10.42 4.17435C10.4924 4.20632 10.5589 4.25152 10.6197 4.30992C10.6902 4.37811 10.741 4.45368 10.772 4.53663C10.7966 4.60206 10.8088 4.67209 10.8088 4.74672L10.8494 10.4534C10.8494 10.8174 11.1358 11.1034 11.4998 11.1034C11.8638 11.1034 12.1492 10.8174 12.1492 10.4534L12.1088 4.74672L12.1088 3.37305C12.1088 3.28686 12.123 3.206 12.1514 3.1305C12.1873 3.03518 12.2458 2.94839 12.3269 2.87011C12.3942 2.80524 12.4679 2.75472 12.5481 2.71854C12.6492 2.67291 12.7606 2.6501 12.8823 2.6501C12.9894 2.6501 13.0875 2.67021 13.1764 2.71042C13.2463 2.742 13.3105 2.78598 13.3691 2.84236C13.4417 2.91255 13.4935 2.99029 13.5246 3.07559C13.548 3.13964 13.5597 3.20795 13.5597 3.28053ZM17.6099 5.58475C17.7132 5.54413 17.8184 5.51201 17.9255 5.48837C18.0745 5.4555 18.2271 5.43907 18.3833 5.43907C18.5303 5.43907 18.6739 5.45435 18.8142 5.48492C18.9269 5.50946 19.0374 5.54386 19.1457 5.58812C19.2701 5.63892 19.3871 5.70081 19.4968 5.77379C19.5946 5.8389 19.6866 5.91285 19.7726 5.99561C19.8873 6.10653 19.9859 6.22755 20.0684 6.35868C20.1188 6.43871 20.1632 6.5225 20.2016 6.61005C20.2536 6.72859 20.2929 6.84984 20.3194 6.97383C20.3469 7.10277 20.3607 7.23466 20.3607 7.36949L20.3607 11.9652L20.3572 17.6213C20.345 17.9375 20.3017 18.2584 20.228 18.5596C20.1669 18.8094 20.0846 19.054 19.9812 19.2934C19.8716 19.5471 19.7416 19.7874 19.5913 20.0141C19.4385 20.2445 19.2647 20.461 19.0698 20.6636C18.856 20.8857 18.6249 21.0829 18.3765 21.255C18.1756 21.3941 17.9633 21.5168 17.7398 21.6232C17.4868 21.7436 17.2272 21.8391 16.961 21.9099C16.684 21.9835 16.3999 22.0302 16.1087 22.05L11.7961 22.0515C11.5039 22.0316 11.1978 21.9811 10.9221 21.903C9.87597 21.6068 8.94834 20.8923 8.13916 19.7594C7.80985 19.2984 6.97114 18.0266 5.62303 15.9442C4.94889 14.9028 4.30092 13.8971 3.67912 12.927C3.63452 12.8608 3.59415 12.7919 3.55848 12.7211C3.47876 12.563 3.42134 12.3936 3.38622 12.213C3.36274 12.0922 3.35056 11.9714 3.34966 11.8505C3.34869 11.7188 3.3611 11.5871 3.38688 11.4553C3.41253 11.3242 3.45041 11.1981 3.50052 11.0771C3.54702 10.9648 3.60406 10.8569 3.67163 10.7533C3.73894 10.6502 3.81444 10.5548 3.89814 10.4673C3.99531 10.3658 4.10353 10.2748 4.2228 10.1943C4.38392 10.0865 4.55317 10.0033 4.73055 9.94477C4.86066 9.90182 4.99515 9.87212 5.13402 9.85567C5.31685 9.83361 5.49634 9.83507 5.67249 9.86006C5.86158 9.88688 6.04682 9.9408 6.22822 10.0218C6.4064 10.1014 6.56753 10.2014 6.71162 10.3218C6.85953 10.4454 6.98948 10.5904 7.10147 10.757L8.05368 12.1718L8.05368 11.9652L8.05795 4.83885C8.05795 4.69941 8.07205 4.56294 8.10026 4.42946C8.12804 4.29801 8.1695 4.16945 8.22464 4.04378C8.26946 3.94163 8.32195 3.84449 8.38211 3.75235C8.46483 3.62565 8.56207 3.50841 8.6738 3.40065C8.76237 3.31523 8.85695 3.23876 8.95754 3.17125C9.07424 3.09292 9.19903 3.02664 9.33191 2.97241C9.44361 2.92682 9.55752 2.89122 9.67363 2.8656C9.8226 2.83273 9.9752 2.81629 10.1314 2.81629C10.2784 2.81629 10.422 2.83157 10.5623 2.86214C10.6612 2.8837 10.7585 2.91284 10.8541 2.94959C10.8818 2.82292 10.9222 2.69897 10.9753 2.57775C11.0203 2.47526 11.0729 2.3778 11.1333 2.28539C11.2159 2.15901 11.3129 2.04206 11.4243 1.93454C11.5127 1.84923 11.6072 1.77286 11.7076 1.70541C11.8244 1.62692 11.9494 1.56051 12.0825 1.5062C12.1934 1.46096 12.3065 1.42555 12.4217 1.39998C12.5715 1.36672 12.7251 1.3501 12.8823 1.3501C13.0293 1.3501 13.1729 1.36538 13.3132 1.39595C13.4258 1.4205 13.5363 1.4549 13.6447 1.49915C13.7605 1.54644 13.87 1.60344 13.9732 1.67017C14.0799 1.73908 14.1798 1.81836 14.273 1.90801C14.3808 2.01232 14.4745 2.12581 14.5539 2.24849C14.6098 2.33481 14.6587 2.42567 14.7006 2.52109C14.7402 2.6114 14.7724 2.7033 14.7972 2.79678C14.9081 2.75154 15.0573 2.70099 15.1726 2.67542C15.3224 2.64217 15.476 2.62554 15.6332 2.62554C15.7784 2.62554 15.9203 2.6405 16.0591 2.67041C16.1733 2.69503 16.2853 2.72977 16.3951 2.77464C16.5108 2.82196 16.6203 2.87898 16.7236 2.94572C16.8301 3.01461 16.93 3.09386 17.0232 3.18345C17.131 3.28776 17.2246 3.40126 17.3041 3.52394C17.36 3.61026 17.4089 3.70112 17.4507 3.79653C17.5027 3.91505 17.542 4.03629 17.5685 4.16025C17.5961 4.28921 17.6099 4.42112 17.6099 4.55597L17.6099 5.58475Z"/></svg>

<svg xmlns="http://www.w3.org/2000/svg" fill="none" viewBox="0 0 24 24" focusable="false"><path fill="none" d="M0 0h24v24H0z"/><path fill="#74767B" fill-rule="evenodd" d="m13.55 3.28.05 7.7c0 .36.29.65.65.65s.65-.29.65-.65l-.05-6.34c0-.08.02-.16.05-.24.03-.09.09-.18.17-.26.07-.06.14-.11.22-.15a.8.8 0 0 1 .63-.01c.07.03.14.08.19.13.08.07.13.15.16.24.02.06.03.13.03.2v7.13c0 .36.29.65.65.65.37 0 .65-.29.65-.65V7.46c0-.09.02-.17.05-.24.03-.1.09-.19.17-.27.07-.06.14-.11.23-.15.1-.04.21-.07.33-.07a.66.66 0 0 1 .49.2c.07.07.12.14.15.22.02.07.04.14.04.21v4.6l-.01 5.63c-.01.23-.04.46-.1.68-.04.17-.1.34-.17.5-.08.18-.17.36-.28.52a3.048 3.048 0 0 1-.89.9c-.14.1-.28.18-.43.25-.18.09-.37.16-.55.21-.2.05-.39.08-.59.1h-4.2c-.15-.01-.3-.04-.44-.07a3 3 0 0 1-1.01-.46c-.42-.28-.82-.69-1.2-1.22-.32-.45-1.14-1.7-2.48-3.77-.67-1.04-1.32-2.04-1.94-3.01a.6.6 0 0 1-.12-.3.6.6 0 0 1 .01-.22c.02-.09.05-.17.1-.24.04-.08.11-.14.18-.19.07-.04.13-.07.2-.1.04-.01.09-.02.14-.03a.74.74 0 0 1 .41.06c.07.03.13.07.18.11.06.05.1.1.15.17l1.83 2.71q.06.105.15.18c.05.04.11.08.17.11.05.03.11.05.17.07.07.02.14.02.22.02s.15-.01.23-.03c.03-.01.07-.02.1-.04.04-.02.08-.04.12-.07.05-.03.09-.07.13-.11.07-.08.12-.16.16-.26a.9.9 0 0 0 .05-.29V4.83c0-.08.02-.16.05-.24.03-.09.09-.18.17-.26a.767.767 0 0 1 .56-.22c.1 0 .2.02.28.06a.7.7 0 0 1 .36.36q.03.105.03.21l.04 5.71c0 .36.29.65.65.65.37 0 .65-.29.65-.65l-.04-5.71V3.37c0-.09.02-.17.05-.24.03-.1.09-.19.17-.26.07-.07.14-.12.22-.16.1-.04.22-.06.34-.06.1 0 .2.02.29.06.07.03.14.07.19.13.08.07.13.15.16.23q.03.09.03.21m4.05 2.3c.11-.04.21-.07.32-.1a2.024 2.024 0 0 1 .89 0c.11.02.22.06.33.1.13.05.24.12.35.19.1.06.19.14.28.22a2 2 0 0 1 .43.62c.05.11.09.23.11.36.03.13.05.26.05.39v4.6l-.01 5.66c-.01.31-.05.63-.13.93-.06.25-.14.5-.24.74q-.165.375-.39.72c-.16.23-.33.45-.53.65a4.452 4.452 0 0 1-2.1 1.24c-.28.08-.57.13-.86.15h-4.31c-.29-.02-.6-.07-.87-.15-1.05-.3-1.98-1.01-2.79-2.15-.33-.46-1.16-1.73-2.51-3.81-.68-1.04-1.32-2.05-1.95-3.02-.04-.06-.08-.13-.12-.2-.08-.16-.13-.33-.17-.51-.02-.12-.03-.24-.04-.36 0-.14.02-.27.04-.4.03-.13.07-.26.12-.38.04-.11.1-.22.17-.32.06-.1.14-.2.22-.29a2.16 2.16 0 0 1 .84-.52 1.954 1.954 0 0 1 .94-.08c.19.02.37.08.55.16s.34.18.49.3c.14.12.27.27.39.43l.95 1.42V4.83c0-.14.02-.27.05-.41.02-.13.06-.26.12-.38.04-.1.1-.2.16-.29.08-.13.18-.25.29-.35.09-.09.18-.17.28-.23.12-.08.24-.15.38-.2.11-.05.22-.08.34-.11.15-.03.3-.05.46-.05.14 0 .29.02.43.05.1.02.19.05.29.08.03-.12.07-.25.12-.37.05-.1.1-.2.16-.29.08-.13.18-.24.29-.35.09-.09.18-.16.28-.23a2.3 2.3 0 0 1 .72-.31c.15-.03.3-.04.46-.04.14 0 .29.01.43.04.11.03.22.06.33.1q.18.075.33.18c.1.06.2.14.3.23.11.11.2.22.28.34.05.09.1.18.15.28q.06.135.09.27c.11-.04.26-.09.38-.12a1.931 1.931 0 0 1 .88 0c.12.02.23.05.34.1.12.05.23.1.33.17.11.07.2.15.3.24.11.1.2.22.28.34.06.09.1.18.15.27.05.12.09.24.11.37.03.12.04.26.04.39z"/></svg>
